!!!OTL: Die Schaeferin.
!!!OTL-incipit:ICH WUSST EINMAL NICHTS ANZUFANGEN
!!!COM: G. W. Fink
!!!ARE: Europa, Mitteleuropa, Deutschland
!!!SCT: F0065
!!!TXL: @@DE
!!!YEM: Copyright 1995, estate of Helmut Schaffrath.
**kern	**text
*ICvox	*
*clefG2	*
*M2/4	*
*k[f#c#g#]	*
*A:	*
!LO:TX:a:t=Nur nicht schleppend.	!
{8e	1._Ich
=1	=1
8.a	wußt'
16b/	einmal
8cc#	.
8dd	nichts
=2	=2
8ee	an-
8ee	-ʒu-
8dd	-fan-
8dd}	-gen
=3	=3
{4cc#	an
8b/	ei-
8b/	-nem
=4	=4
8cc#	Sonntag
8cc#	.
8dd	in
8dd	der
=5	=5
4cc#	Früh;
8r}	.
{8e	da
=6	=6
8.a	bin
16b/	ich
8cc#	'naus
8dd	in's
=7	=7
8ee	Feld
8ee	ge-
8dd	-gangen,
8dd}	.
=8	=8
{4cc#	da
8b/	traf
8b/	ich
=9	=9
8cc#	ei-
8cc#	-ne
8dd	Heerde
8dd	.
=10	=10
4cc#	Vieh.
4r}	.
=11	=11
{4b/^^	Ei,
8b/	ei
8b/	tral-
=12	=12
8b/	-la
8b/	burli,
8b/	.
8r}	.
=13	=13
{4cc#/^^	das
8cc#/	Ding
8cc#/	ver-
=14	=14
8cc#/	-geß'
8cc#/	ich
8cc#/	nie
8r}	.
=15	=15
{4ee/	ei,
8cc#/	ei,
8ee/	tral-
=16	=16
8dd/	-la
8e	burli,
8e}	.
{16e\L	bur-
16f#J	.
=17	=17
8g#\'	-li,
(16g#\L	burli,
16f#J)	.
8e\'	.
(16e\L	bur-
16g#J)	.
=18	=18
8b'	-li,
(16b\L	bur-
16g#J)	.
8e\'	-li,
8r}	.
=19	=19
{4cc#/	das
8cc#/	Ding
8cc#/	ver-
=20	=20
8cc#/	-geß'
8cc#/	ich
8cc#/	nie,
8a	das
=21	=21
4b/	Ding,
8r}	.
{8e	das
=22	=22
8.ee/	Dingderling,
16ee/	.
8ee/	.
8dd/	das
=23	=23
8cc#/	Ding
8cc#/	vergeß'
8b/	.
8b/	ich
=24	=24
4cc#/;	nie!
8r}	.
==	==
!!!AGN: Liebe, Schaefer - Lied
!!!ONB: ESAC (Essen Associative Code) Database: FINK
!!!AMT: simple duple
!!!AIN: vox
!!!EED: Helmut Schaffrath
!!!EEV: 1.0
!!Text: G. W. Fink
!!!GTL: Volkslieder
!!!source: Musikalischer Hausschatz der Deutschen. Eine Sammlung von über 1000 Liedern und Gesängen mit Singstimmen und Klavierbegleitung. Leipzig, Litterarisches Verlags-Haus.
!!!page: 39
!!!URL-scan: https://www.digitale-sammlungen.de/en/view/bsb11144622?page=46,47
!!!ENC: Anna Maria Matuszewska
!!!EEV: 2024/25/07
*-	*-
